style-guide/assets/xd-icons-fandom-small.svg

<?xml version="1.0" encoding="UTF-8"?>
<svg width="18px" height="18px" viewBox="0 0 18 18" version="1.1" xmlns="http://www.w3.org/2000/svg" xmlns:xlink="http://www.w3.org/1999/xlink">
    <!-- Generator: Sketch 51.3 (57544) - http://www.bohemiancoding.com/sketch -->
    <title>fandom</title>
    <desc>Created with Sketch.</desc>
    <defs></defs>
    <g id="fandom" stroke="none" stroke-width="1" fill="none" fill-rule="evenodd">
        <path d="M16.6432091,8.48759572 C16.6432091,8.6372548 16.5836946,8.78084042 16.4776338,8.88718316 L9.51606222,15.8738327 C9.3986543,15.9899159 9.28008851,16.0420559 9.13234443,16.0420559 C8.98020044,16.0420559 8.84565606,15.9852175 8.73230069,15.8730305 L8.24136423,15.411448 C8.15301882,15.3282531 8.15081887,15.189595 8.23650118,15.1037645 L16.2707226,7.05620864 C16.407467,6.91915485 16.6432091,7.01506958 16.6432091,7.20758662 L16.6432091,8.48759572 Z M7.71557591,13.7561453 L7.31738476,14.1123018 C7.18735607,14.2286142 6.98831839,14.2242596 6.86373168,14.1023322 L1.5654389,8.92385308 C1.4319366,8.79333111 1.3567909,8.61525285 1.3567909,8.42961142 L1.3567909,7.46209872 C1.3567909,7.11361997 1.78149725,6.93794817 2.03217589,7.18283443 L7.65606144,12.6805709 C7.75390138,12.7774024 7.9190135,12.9769097 7.9190135,13.2180143 C7.9190135,13.3716842 7.88369849,13.589641 7.71557591,13.7561453 L7.71557591,13.7561453 Z M2.98047061,3.73437302 L4.80260906,1.93101552 C4.88759665,1.84690391 5.02538306,1.84690391 5.11037065,1.93101552 L11.2139613,7.97158131 C11.8674626,8.61834688 11.8674626,9.66699175 11.2139613,10.3137573 L9.39251759,12.1163127 C9.3076458,12.2004243 9.1697436,12.2004243 9.08475601,12.1163127 L2.98128112,6.07551769 C2.66703547,5.7646256 2.49404984,5.34865129 2.49404984,4.90448698 C2.49404984,4.46089564 2.6668039,4.04526511 2.98047061,3.73437302 L2.98047061,3.73437302 Z M10.2025628,4.76708941 L12.1071415,2.88225595 C12.4787016,2.51509846 12.9954586,2.34217691 13.5306256,2.41540214 C13.9060068,2.46662542 14.2469992,2.65971542 14.5149301,2.92477013 L16.4433609,4.83343903 C16.5283485,4.91766523 16.5283485,5.05403146 16.4433609,5.13814307 L13.5104787,8.04091036 C13.4253753,8.12502197 13.2877047,8.12502197 13.2026013,8.04091036 L10.2025628,5.07167886 C10.1175752,4.98768184 10.1175752,4.85131561 10.2025628,4.76708941 L10.2025628,4.76708941 Z M17.7761839,4.40921399 L13.5284257,0.13281473 C13.3530085,-0.0437738129 13.0656254,-0.0443467803 12.8895136,0.131554202 L9.52069369,3.49785209 C9.26052053,3.75786468 8.83627732,3.75889602 8.57459893,3.50037315 L5.20473697,0.169255455 C5.0303619,-0.0030931297 4.74807343,-0.00412447096 4.57254049,0.167192772 L0.232615883,4.39901517 C0.0837139292,4.5442051 0,4.74222262 0,4.94906384 L0,8.956856 C0,9.16163453 0.0822086995,9.35816234 0.228563342,9.5028939 L8.68656486,17.8699364 C8.86186623,18.0434309 9.14600728,18.0433163 9.32130865,17.8698218 L17.7716682,9.50266471 C17.9177913,9.35793316 18,9.16151994 18,8.956856 L18,4.95055356 C18,4.74806689 17.9195281,4.55360176 17.7761839,4.40921399 L17.7761839,4.40921399 Z" id="Heart" fill="#000000"></path>
    </g>
</svg>

<svg viewBox="0 0 18 18" xmlns="http://www.w3.org/2000/svg">
  <path d="M16.643 8.488c0 .15-.06.293-.165.4l-6.962 6.986a.516.516 0 0 1-.384.168.553.553 0 0 1-.4-.169l-.49-.462a.214.214 0 0 1-.005-.307l8.034-8.048c.136-.137.372-.04.372.152v1.28zm-8.927 5.268l-.399.356a.333.333 0 0 1-.453-.01L1.565 8.924a.691.691 0 0 1-.208-.494v-.968c0-.348.424-.524.675-.28l5.624 5.499c.098.096.263.296.263.537a.745.745 0 0 1-.203.538zM2.98 3.734l1.823-1.803a.22.22 0 0 1 .307 0l6.104 6.04a1.644 1.644 0 0 1 0 2.343l-1.821 1.802a.22.22 0 0 1-.308 0L2.98 6.076a1.635 1.635 0 0 1-.487-1.172c0-.443.173-.859.486-1.17zm7.223 1.033l1.904-1.885c.372-.367.888-.54 1.424-.467.375.052.716.245.984.51l1.928 1.908a.214.214 0 0 1 0 .305L13.51 8.041a.22.22 0 0 1-.307 0l-3-2.97a.214.214 0 0 1 0-.304zm7.573-.358L13.528.133a.452.452 0 0 0-.638-.001L9.52 3.498a.673.673 0 0 1-.945.002L5.205.17a.452.452 0 0 0-.632-.003L.233 4.4a.768.768 0 0 0-.233.55v4.008c0 .205.082.401.229.546l8.458 8.367c.175.173.459.173.634 0l8.45-8.367A.768.768 0 0 0 18 8.957V4.95a.769.769 0 0 0-.224-.542z"/>
</svg>
